static/assets/template/assets/img/icons/essential/detailed/Folder.svg

<svg height="142" viewBox="0 0 147 142" width="147" xmlns="http://www.w3.org/2000/svg"><g fill="none" fill-rule="evenodd"><g transform="translate(1 41)"><path d="m123.1 81.5h-104.7c-4.1 0-7.4-3.3-7.4-7.4v-66.1c0-4.1 3.3-7.4 7.4-7.4h104.7c4.1 0 7.4 3.3 7.4 7.4v66.1c0 4.1-3.3 7.4-7.4 7.4z" fill-rule="nonzero"/><path d="m123.4 81.5h-101.2c-3.9 0-7-3.2-7-7v-61.5c0-3.9 3.2-7 7-7h101.3c3.9 0 7 3.2 7 7v61.5c0 3.8-3.2 7-7.1 7z" fill-rule="nonzero"/><g stroke-linecap="round" stroke-linejoin="round" stroke-width="3"><path d="m11 25.2v-17.3c0-4.1 3.3-7.4 7.4-7.4h26.9"/><path d="m130.5 42.4v31.7c0 4.1-3.3 7.4-7.4 7.4h-104.7c-4.1 0-7.4-3.3-7.4-7.4v-34.4"/><path d="m63 .5h60c4.1 0 7.4 3.3 7.4 7.4v25.7"/><path d="m53.3.5h.2"/></g><path d="m135.4 15.9h-42.9c-4.2 0-8.2 1.4-11.4 4.1l-11.2 9.2c-3.2 2.6-7.3 4.1-11.4 4.1h-48.8c-5.4 0-9.6 4.8-8.8 10.2l8.9 47.6c.7 4.5 4.5 7.7 9 7.7h104c4.5 0 8.3-3.2 9-7.6l12.5-64.9c.8-5.4-3.4-10.4-8.9-10.4z" fill-rule="nonzero"/><path d="m138.5 59.4 5.7-28.7c.9-5.1-3.2-9.7-8.6-9.7h-41.8c-4.1 0-8 1.4-11.1 3.8l-11 8.6c-3.1 2.5-7.1 3.8-11.1 3.8h-47.6c-5.3 0-9.4 4.5-8.6 9.6l8.7 44.7c.7 4.2 4.4 7.3 8.8 7.3h101.4c4.3 0 8.1-3 8.8-7.2z" fill-rule="nonzero"/><path d="m133.6 81.5.3-1.4" stroke-linecap="round" stroke-linejoin="round" stroke-width="3"/><path d="m137.8 59.6 6.4-33.3c.9-5.4-3.3-10.3-8.8-10.3h-42.9c-4.2 0-8.2 1.4-11.4 4.1l-11.2 9.2c-3.2 2.6-7.3 4.1-11.4 4.1h-48.8c-5.4 0-9.6 4.8-8.8 10.2l8.9 47.6c.7 4.5 4.5 7.7 9 7.7h104c4.5 0 8.3-3.2 9-7.6l.5-2.6" stroke-linecap="round" stroke-linejoin="round" stroke-width="3"/></g><g fill-rule="nonzero" transform="translate(23)"><path d="m78.4 36.3c-2.1 0-4.1-1.3-5.1-3.1-3-1.1-5.2-4-5.2-7.2v-5.3c0-.8.7-1.5 1.5-1.5v-2.8c-.8 0-1.5-.7-1.5-1.5v-11.7h-60.5c-2.1 0-3.9 1.7-3.9 3.9v16.1c0 .5-.2.9-.6 1.2v3.8c.4.3.6.7.6 1.2v1.2c0 .5-.2.9-.6 1.2v4.5c.4.3.6.7.6 1.2v35.7h32.8c4.2 0 8.2-1.4 11.4-4.1l3.7-3h-31.6c-.8 0-1.5-.7-1.5-1.5s.7-1.5 1.5-1.5h35.3l3.9-3.2c3.2-2.6 7.3-4.1 11.4-4.1h25.8l-.3-19.6h-17.7zm-57.6-18.5h37.2c.8 0 1.5.7 1.5 1.5s-.7 1.5-1.5 1.5h-37.2c-.8 0-1.5-.7-1.5-1.5s.7-1.5 1.5-1.5zm0 9.8h14.2c.8 0 1.5.7 1.5 1.5s-.7 1.5-1.5 1.5h-14.2c-.8 0-1.5-.7-1.5-1.5s.7-1.5 1.5-1.5zm21.7 24.7h-22.1c-.8 0-1.5-.7-1.5-1.5s.7-1.5 1.5-1.5h22.1c.8 0 1.5.7 1.5 1.5s-.6 1.5-1.5 1.5zm37.9 0h-28.6c-.8 0-1.5-.7-1.5-1.5s.7-1.5 1.5-1.5h28.6c.8 0 1.5.7 1.5 1.5s-.7 1.5-1.5 1.5z"/><path d="m18.5 64.6c0 .8.7 1.5 1.5 1.5h31.6l3.7-3h-35.3c-.8 0-1.5.7-1.5 1.5z"/><path d="m80.4 49.3h-28.6c-.8 0-1.5.7-1.5 1.5s.7 1.5 1.5 1.5h28.6c.8 0 1.5-.7 1.5-1.5s-.7-1.5-1.5-1.5z"/><path d="m42.5 49.3h-22.1c-.8 0-1.5.7-1.5 1.5s.7 1.5 1.5 1.5h22.1c.8 0 1.5-.7 1.5-1.5s-.6-1.5-1.5-1.5z"/><path d="m20.8 20.8h37.2c.8 0 1.5-.7 1.5-1.5s-.7-1.5-1.5-1.5h-37.2c-.8 0-1.5.7-1.5 1.5s.7 1.5 1.5 1.5z"/><path d="m20.8 30.6h14.2c.8 0 1.5-.7 1.5-1.5s-.7-1.5-1.5-1.5h-14.2c-.8 0-1.5.7-1.5 1.5s.7 1.5 1.5 1.5z"/><path d="m69.7 16.3v2.8c.8 0 1.5.7 1.5 1.5v5.3c0 1.3.6 2.5 1.5 3.3v-3.1-17.6-1.4l-1.5-1.7v9.3c0 1-.7 1.6-1.5 1.6z"/><path d="m80.5 15.8-7.8-8.6v1.4z"/><path d="m73.4 33.2c1 1.8 2.9 3.1 5.1 3.1h17.7v-2.6h-20.2c-.9 0-1.8-.2-2.6-.5z"/><path d="m72.7 26.2v3.1c.9.8 2 1.4 3.3 1.4h18.2l-13.6-14.9-7.8-7.1v17.5z"/><path d="m98.9 31.7c0 .1.1.3.1.4 0-.1 0-.3-.1-.4z"/><path d="m98.7 31.2c.1.1.2.2.2.4 0-.1-.1-.3-.2-.4z"/><path d="m72.7 29.3c-.9-.9-1.5-2.1-1.5-3.3v-5.3c0-.8-.7-1.5-1.5-1.5-.8 0-1.5.7-1.5 1.5v5.3c0 3.2 2.2 6.1 5.2 7.2.8.3 1.7.5 2.6.5h20.1v-.9l-1.9-2.1h-18.2c-1.3 0-2.4-.6-3.3-1.4z"/><path d="m69.7 16.3c.8 0 1.5-.7 1.5-1.5v-9.3l-2.2-2.4h-.8v11.7c0 .9.6 1.5 1.5 1.5z"/><path d="m3.7 30.6v-1.2c0-.5-.2-.9-.6-1.2-.3-.2-.6-.3-.9-.3-.8 0-1.5.7-1.5 1.5v1.2c0 .8.7 1.5 1.5 1.5.3 0 .6-.1.9-.3.4-.3.6-.7.6-1.2z"/><path d="m3.1 36.3c-.2-.2-.6-.3-.9-.3-.8 0-1.5.7-1.5 1.5v35.7h3v-35.7c0-.5-.2-.9-.6-1.2z"/><path d="m99 32.2c0-.1 0-.1 0 0 0-.2 0-.3-.1-.5v-.1c-.1-.1-.1-.3-.2-.4 0 0 0 0 0-.1l-27.9-30.5c-.3-.3-.7-.5-1.1-.5h-62c-3.8 0-6.9 3.1-6.9 6.9v16.1c0 .8.7 1.5 1.5 1.5.3 0 .6-.1.9-.3.4-.3.6-.7.6-1.2v-16.1c0-2.1 1.7-3.9 3.9-3.9h60.5.8l2.2 2.4 1.5 1.7 7.8 8.5 13.6 14.9 1.9 2.1v.9 2.6l.3 19.6h3z"/></g></g></svg>

<?xml version="1.0" encoding="UTF-8"?>
<svg width="147px" height="142px" viewBox="0 0 147 142" version="1.1" xmlns="http://www.w3.org/2000/svg" xmlns:xlink="http://www.w3.org/1999/xlink">
    <!-- Generator: Sketch 51.2 (57519) - http://www.bohemiancoding.com/sketch -->
    <title>Folder</title>
    <desc>Created with Sketch.</desc>
    <defs></defs>
    <g id="Page-1" stroke="none" stroke-width="1" fill="none" fill-rule="evenodd">
        <g id="Folder" transform="translate(1.000000, 0.000000)">
            <g id="Group" transform="translate(0.000000, 41.000000)">
                <path d="M123.1,81.5 L18.4,81.5 C14.3,81.5 11,78.2 11,74.1 L11,8 C11,3.9 14.3,0.6 18.4,0.6 L123.1,0.6 C127.2,0.6 130.5,3.9 130.5,8 L130.5,74.1 C130.5,78.2 127.2,81.5 123.1,81.5 Z" id="Shape" class="fill-neutral" fill-rule="nonzero"></path>
                <path d="M123.4,81.5 L22.2,81.5 C18.3,81.5 15.2,78.3 15.2,74.5 L15.2,13 C15.2,9.1 18.4,6 22.2,6 L123.5,6 C127.4,6 130.5,9.2 130.5,13 L130.5,74.5 C130.5,78.3 127.3,81.5 123.4,81.5 Z" id="Shape" class="fill-primary-500" fill-rule="nonzero"></path>
                <path d="M11,25.2 L11,7.9 C11,3.8 14.3,0.5 18.4,0.5 L45.3,0.5" id="Shape" class="stroke-primary" stroke-width="3" stroke-linecap="round" stroke-linejoin="round"></path>
                <path d="M130.5,42.4 L130.5,74.1 C130.5,78.2 127.2,81.5 123.1,81.5 L18.4,81.5 C14.3,81.5 11,78.2 11,74.1 L11,39.7" id="Shape" class="stroke-primary" stroke-width="3" stroke-linecap="round" stroke-linejoin="round"></path>
                <path d="M63,0.5 L123,0.5 C127.1,0.5 130.4,3.8 130.4,7.9 L130.4,33.6" id="Shape" class="stroke-primary" stroke-width="3" stroke-linecap="round" stroke-linejoin="round"></path>
                <path d="M53.3,0.5 L53.5,0.5" id="Shape" class="stroke-primary" stroke-width="3" stroke-linecap="round" stroke-linejoin="round"></path>
                <path d="M135.4,15.9 L92.5,15.9 C88.3,15.9 84.3,17.3 81.1,20 L69.9,29.2 C66.7,31.8 62.6,33.3 58.5,33.3 L9.7,33.3 C4.3,33.3 0.1,38.1 0.9,43.5 L9.8,91.1 C10.5,95.6 14.3,98.8 18.8,98.8 L122.8,98.8 C127.3,98.8 131.1,95.6 131.8,91.2 L144.3,26.3 C145.1,20.9 140.9,15.9 135.4,15.9 Z" id="Shape" class="fill-neutral" fill-rule="nonzero"></path>
                <path d="M138.5,59.4 L144.2,30.7 C145.1,25.6 141,21 135.6,21 L93.8,21 C89.7,21 85.8,22.4 82.7,24.8 L71.7,33.4 C68.6,35.9 64.6,37.2 60.6,37.2 L13,37.2 C7.7,37.2 3.6,41.7 4.4,46.8 L13.1,91.5 C13.8,95.7 17.5,98.8 21.9,98.8 L123.3,98.8 C127.6,98.8 131.4,95.8 132.1,91.6 L138.5,59.4" id="Shape" class="fill-primary-200" fill-rule="nonzero"></path>
                <path d="M133.6,81.5 L133.9,80.1" id="Shape" class="stroke-primary" stroke-width="3" stroke-linecap="round" stroke-linejoin="round"></path>
                <path d="M137.8,59.6 L144.2,26.3 C145.1,20.9 140.9,16 135.4,16 L92.5,16 C88.3,16 84.3,17.4 81.1,20.1 L69.9,29.3 C66.7,31.9 62.6,33.4 58.5,33.4 L9.7,33.4 C4.3,33.4 0.1,38.2 0.9,43.6 L9.8,91.2 C10.5,95.7 14.3,98.9 18.8,98.9 L122.8,98.9 C127.3,98.9 131.1,95.7 131.8,91.3 L132.3,88.7" id="Shape" class="stroke-primary" stroke-width="3" stroke-linecap="round" stroke-linejoin="round"></path>
            </g>
            <g id="Group" transform="translate(22.000000, 0.000000)" fill-rule="nonzero">
                <path d="M78.4,36.3 C76.3,36.3 74.3,35 73.3,33.2 C70.3,32.1 68.1,29.2 68.1,26 L68.1,20.7 C68.1,19.9 68.8,19.2 69.6,19.2 L69.6,16.4 C68.8,16.4 68.1,15.7 68.1,14.9 L68.1,3.2 L7.6,3.2 C5.5,3.2 3.7,4.9 3.7,7.1 L3.7,23.2 C3.7,23.7 3.5,24.1 3.1,24.4 L3.1,28.2 C3.5,28.5 3.7,28.9 3.7,29.4 L3.7,30.6 C3.7,31.1 3.5,31.5 3.1,31.8 L3.1,36.3 C3.5,36.6 3.7,37 3.7,37.5 L3.7,73.2 L36.5,73.2 C40.7,73.2 44.7,71.8 47.9,69.1 L51.6,66.1 L20,66.1 C19.2,66.1 18.5,65.4 18.5,64.6 C18.5,63.8 19.2,63.1 20,63.1 L55.3,63.1 L59.2,59.9 C62.4,57.3 66.5,55.8 70.6,55.8 L96.4,55.8 L96.1,36.2 L78.4,36.2 L78.4,36.3 Z M20.8,17.8 L58,17.8 C58.8,17.8 59.5,18.5 59.5,19.3 C59.5,20.1 58.8,20.8 58,20.8 L20.8,20.8 C20,20.8 19.3,20.1 19.3,19.3 C19.3,18.5 20,17.8 20.8,17.8 Z M20.8,27.6 L35,27.6 C35.8,27.6 36.5,28.3 36.5,29.1 C36.5,29.9 35.8,30.6 35,30.6 L20.8,30.6 C20,30.6 19.3,29.9 19.3,29.1 C19.3,28.3 20,27.6 20.8,27.6 Z M42.5,52.3 L20.4,52.3 C19.6,52.3 18.9,51.6 18.9,50.8 C18.9,50 19.6,49.3 20.4,49.3 L42.5,49.3 C43.3,49.3 44,50 44,50.8 C44,51.6 43.4,52.3 42.5,52.3 Z M80.4,52.3 L51.8,52.3 C51,52.3 50.3,51.6 50.3,50.8 C50.3,50 51,49.3 51.8,49.3 L80.4,49.3 C81.2,49.3 81.9,50 81.9,50.8 C81.9,51.6 81.2,52.3 80.4,52.3 Z" id="Shape" class="fill-neutral"></path>
                <path d="M18.5,64.6 C18.5,65.4 19.2,66.1 20,66.1 L51.6,66.1 L55.3,63.1 L20,63.1 C19.2,63.1 18.5,63.8 18.5,64.6 Z" id="Shape" class="fill-primary-300"></path>
                <path d="M80.4,49.3 L51.8,49.3 C51,49.3 50.3,50 50.3,50.8 C50.3,51.6 51,52.3 51.8,52.3 L80.4,52.3 C81.2,52.3 81.9,51.6 81.9,50.8 C81.9,50 81.2,49.3 80.4,49.3 Z" id="Shape" class="fill-primary-300"></path>
                <path d="M42.5,49.3 L20.4,49.3 C19.6,49.3 18.9,50 18.9,50.8 C18.9,51.6 19.6,52.3 20.4,52.3 L42.5,52.3 C43.3,52.3 44,51.6 44,50.8 C44,50 43.4,49.3 42.5,49.3 Z" id="Shape" class="fill-primary-300"></path>
                <path d="M20.8,20.8 L58,20.8 C58.8,20.8 59.5,20.1 59.5,19.3 C59.5,18.5 58.8,17.8 58,17.8 L20.8,17.8 C20,17.8 19.3,18.5 19.3,19.3 C19.3,20.1 20,20.8 20.8,20.8 Z" id="Shape" class="fill-primary"></path>
                <path d="M20.8,30.6 L35,30.6 C35.8,30.6 36.5,29.9 36.5,29.1 C36.5,28.3 35.8,27.6 35,27.6 L20.8,27.6 C20,27.6 19.3,28.3 19.3,29.1 C19.3,29.9 20,30.6 20.8,30.6 Z" id="Shape" class="fill-primary"></path>
                <path d="M69.7,16.3 C69.7,16.3 69.7,16.3 69.7,16.3 L69.7,19.1 C69.7,19.1 69.7,19.1 69.7,19.1 C70.5,19.1 71.2,19.8 71.2,20.6 L71.2,25.9 C71.2,27.2 71.8,28.4 72.7,29.2 L72.7,26.1 L72.7,8.5 L72.7,7.1 L71.2,5.4 L71.2,14.7 C71.2,15.7 70.5,16.3 69.7,16.3 Z" id="Shape" class="fill-neutral"></path>
                <polygon id="Shape" class="fill-primary-300" points="80.5 15.8 72.7 7.2 72.7 8.6"></polygon>
                <path d="M73.4,33.2 C74.4,35 76.3,36.3 78.5,36.3 L96.2,36.3 L96.2,33.7 L76,33.7 C75.1,33.7 74.2,33.5 73.4,33.2 Z" id="Shape" class="fill-primary-300"></path>
                <path d="M72.7,26.2 L72.7,29.3 C73.6,30.1 74.7,30.7 76,30.7 L94.2,30.7 L80.6,15.8 L72.8,8.7 L72.8,26.2 L72.7,26.2 Z" id="Shape" class="fill-primary-300"></path>
                <path d="M98.9,31.7 C98.9,31.8 99,32 99,32.1 C99,32 99,31.8 98.9,31.7 Z" id="Shape" class="fill-primary"></path>
                <path d="M98.7,31.2 C98.8,31.3 98.9,31.4 98.9,31.6 C98.9,31.5 98.8,31.3 98.7,31.2 Z" id="Shape" class="fill-primary"></path>
                <path d="M72.7,29.3 C71.8,28.4 71.2,27.2 71.2,26 L71.2,20.7 C71.2,19.9 70.5,19.2 69.7,19.2 C69.7,19.2 69.7,19.2 69.7,19.2 C68.9,19.2 68.2,19.9 68.2,20.7 L68.2,26 C68.2,29.2 70.4,32.1 73.4,33.2 C74.2,33.5 75.1,33.7 76,33.7 L96.1,33.7 L96.1,32.8 L94.2,30.7 L76,30.7 C74.7,30.7 73.6,30.1 72.7,29.3 Z" id="Shape" class="fill-primary"></path>
                <path d="M69.7,16.3 C69.7,16.3 69.7,16.3 69.7,16.3 C70.5,16.3 71.2,15.6 71.2,14.8 L71.2,5.5 L69,3.1 L68.2,3.1 L68.2,14.8 C68.2,15.7 68.8,16.3 69.7,16.3 Z" id="Shape" class="fill-primary"></path>
                <path d="M3.7,30.6 L3.7,29.4 C3.7,28.9 3.5,28.5 3.1,28.2 C2.8,28 2.5,27.9 2.2,27.9 C1.4,27.9 0.7,28.6 0.7,29.4 L0.7,30.6 C0.7,31.4 1.4,32.1 2.2,32.1 C2.5,32.1 2.8,32 3.1,31.8 C3.5,31.5 3.7,31.1 3.7,30.6 Z" id="Shape" class="fill-primary"></path>
                <path d="M3.1,36.3 C2.9,36.1 2.5,36 2.2,36 C1.4,36 0.7,36.7 0.7,37.5 L0.7,73.2 L3.7,73.2 L3.7,37.5 C3.7,37 3.5,36.6 3.1,36.3 Z" id="Shape" class="fill-primary"></path>
                <path d="M99,32.2 C99,32.1 99,32.1 99,32.2 C99,32 99,31.9 98.9,31.7 C98.9,31.7 98.9,31.6 98.9,31.6 C98.8,31.5 98.8,31.3 98.7,31.2 C98.7,31.2 98.7,31.2 98.7,31.1 L70.8,0.6 C70.5,0.3 70.1,0.1 69.7,0.1 L7.7,0.1 C3.9,0.1 0.8,3.2 0.8,7 L0.8,23.1 C0.8,23.9 1.5,24.6 2.3,24.6 C2.6,24.6 2.9,24.5 3.2,24.3 C3.6,24 3.8,23.6 3.8,23.1 L3.8,7 C3.8,4.9 5.5,3.1 7.7,3.1 L68.2,3.1 L69,3.1 L71.2,5.5 L72.7,7.2 L80.5,15.7 L94.1,30.6 L96,32.7 L96,33.6 L96,36.2 L96.3,55.8 L99.3,55.8 L99,32.2 Z" id="Shape" class="fill-primary"></path>
            </g>
        </g>
    </g>
</svg>
